assets/sonr-icons/card-receive.svg

<svg xmlns="http://www.w3.org/2000/svg" width="24" height="24" fill="none" viewBox="0 0 24 24"><path fill="#000" d="M15.293 18.293C14.902 18.684 14.902 19.317 15.293 19.707L17.293 21.707C17.684 22.098 18.317 22.098 18.707 21.707C19.097 21.316 19.098 20.683 18.707 20.292L18.414 19.999H22C22.552 19.999 23 19.551 23 18.999C23 18.447 22.552 17.999 22 17.999H18.414L18.707 17.706C19.098 17.315 19.098 16.682 18.707 16.291C18.316 15.9 17.683 15.9 17.292 16.291L15.292 18.291L15.293 18.293ZM2.27299 7.942C2.38299 8 2.52399 8 2.80699 8H21.192C21.476 8 21.617 8 21.726 7.942C21.82 7.892 21.9 7.808 21.946 7.713C21.999 7.601 21.993 7.465 21.981 7.194C21.951 6.501 21.874 6.032 21.673 5.638C21.386 5.073 20.927 4.614 20.362 4.327C19.72 4 18.88 4 17.2 4H6.79999C5.11999 4 4.27999 4 3.63799 4.327C3.07299 4.614 2.61399 5.073 2.32699 5.638C2.12599 6.033 2.04899 6.501 2.01899 7.194C2.00699 7.466 2.00199 7.601 2.05399 7.713C2.09899 7.809 2.17799 7.893 2.27299 7.942Z"/><path fill="#000" d="M2.05399 10.273C1.99899 10.38 1.99899 10.52 1.99899 10.8V15.2C1.99899 16.88 1.99899 17.72 2.32599 18.362C2.61399 18.927 3.07199 19.386 3.63699 19.673C4.27899 20 5.11899 20 6.79899 20H12.199C12.479 20 12.619 20 12.726 19.945C12.82 19.897 12.896 19.82 12.944 19.727C12.999 19.62 12.999 19.48 12.999 19.2V19C12.999 15.686 15.686 13 18.999 13H21.199C21.479 13 21.619 13 21.726 12.945C21.82 12.897 21.896 12.821 21.944 12.727C21.999 12.62 21.999 12.48 21.999 12.2V10.8C21.999 10.52 21.999 10.38 21.944 10.273C21.896 10.179 21.819 10.103 21.726 10.055C21.619 10 21.479 10 21.199 10H2.79899C2.51899 10 2.37899 10 2.27199 10.055C2.17799 10.103 2.10199 10.18 2.05399 10.274V10.273ZM5.99999 15C5.99999 14.448 6.44799 14 6.99999 14H11C11.552 14 12 14.448 12 15C12 15.552 11.552 16 11 16H6.99999C6.44799 16 5.99999 15.552 5.99999 15Z"/></svg>

<svg xmlns="http://www.w3.org/2000/svg" width="24" height="24" fill="none"><path fill="currentColor" d="M15.293 18.293a1 1 0 0 0 0 1.414l2 2a1.001 1.001 0 0 0 1.414-1.415l-.293-.293H22a1 1 0 0 0 0-2h-3.586l.293-.293a1 1 0 1 0-1.415-1.415l-2 2zM2.273 7.942c.11.058.251.058.534.058h18.385c.284 0 .425 0 .534-.058a.52.52 0 0 0 .22-.229c.053-.112.047-.248.035-.519-.03-.693-.107-1.162-.308-1.556a3 3 0 0 0-1.311-1.311C19.72 4 18.88 4 17.2 4H6.8c-1.68 0-2.52 0-3.162.327a3 3 0 0 0-1.311 1.311c-.201.395-.278.863-.308 1.556-.012.272-.017.407.035.519a.5.5 0 0 0 .219.229"/><path fill="currentColor" d="M2.054 10.273c-.055.107-.055.247-.055.527v4.4c0 1.68 0 2.52.327 3.162a3 3 0 0 0 1.311 1.311C4.279 20 5.119 20 6.799 20h5.4c.28 0 .42 0 .527-.055a.5.5 0 0 0 .218-.218c.055-.107.055-.247.055-.527V19a6 6 0 0 1 6-6h2.2c.28 0 .42 0 .527-.055a.5.5 0 0 0 .218-.218c.055-.107.055-.247.055-.527v-1.4c0-.28 0-.42-.055-.527a.5.5 0 0 0-.218-.218C21.619 10 21.479 10 21.199 10h-18.4c-.28 0-.42 0-.527.055a.5.5 0 0 0-.218.219zM6 15a1 1 0 0 1 1-1h4a1 1 0 0 1 0 2H7a1 1 0 0 1-1-1"/></svg>
